X: 1578
T: Angus Donald Beaton's Lament
R: waltz
M: 3/4
K: Amajor
|:af|e3d cB|A4 =G2|(FA3) F2|E2C2A,2|A,2C2E2|c2B2A2|df3a2|e2c2A2|B4 af|e3d cB|
A4=G2|(FA3) F2|E2C2A,2|A,2C2E2|c2B2A2|df3a2|e2c2A2|(Bd3) GB|A6|A4:|:cd|e2c2A2|a2g2a2|
(fa3) f2|e2c2A2|A,2C2E2|c2B2A2|df3a2|e2c2A2|B4cd|e2c2A2|a2g2a2|(fa3) f2|e2c2A2|df3a2|
e2c2A2|(Bcd2) GB|A6|A4:|:c2|A,2C2E2|c2B2A2|df3a2|e2c2A2|A,2C2E2|c2B2A2|df3a2|e2c2A2|
B4c2|A,2C2E2|c2B2A2|df3a2|e2c2A2|df3a2|e2c2A2|(Bcd2)GB|A6|A4:|:d2|ce3a2|Ad3=g2|
(fa3)df|e2c2A2|A,2C2E2|c2B2A2|df3a2|e2c2A2|B4d2|ce3a2|Ad3=g2|(fga2)df|e2c2A2|
df3a2|e2c2A2|(Bcd2)GB|A6|A4:|

